X:8602
T:Hesleyside Reel
R:Reel
C:Trad.
O:England, Northumbria
Z:Paul Hardy's Annex Tunebook 2015 (see www.paulhardy.net). Creative Commons cc by-nc-sa licenced.
M:4/4
L:1/8
Q:1/4=130
K:G
GA|"G"B2 dB AGAB|GABc "D"d2 ef|"C"gfge "G"dBGB|"Am"e2 A2 "D"A2 GA|
"G"B2 dB AGAB|GABc "D"d2 ef|"C"gfge "G"dBGA|"D"B2 G2 "G"G2:|
|:Bd|"C"edef gfge|"G"dBGB d2 Bd|"C"edef gfge|"G"dBGB "D"A2 GA|
"G"B2 dB AGAB|GABc "D"d2 ef|"C"gfge "G"dBGA|"D"B2 G2 "G"G2:|

